src/images/instrument.svg

<svg width="124" height="124" viewBox="0 0 124 124" fill="none" xmlns="http://www.w3.org/2000/svg">
<path d="M54.2526 23.2719V35.0895L61.446 42.2818C59.799 33.8545 62.2937 25.2577 68.3486 19.2036C73.2653 14.2877 79.7805 11.6481 86.5136 11.6481H86.8042L72.902 25.4999L76.5592 47.4399L98.5025 51.0966L112.38 37.2206C112.453 44.0738 109.813 50.6607 104.824 55.6493C102.571 57.9014 99.9314 59.6207 97.1219 60.88C97.5579 61.2675 98.0665 61.5823 98.4782 61.9939L105.914 69.4284C108.457 67.9027 110.879 66.0623 113.034 63.8828C122.262 54.6564 126.041 41.0468 122.892 28.3816C122.165 25.4272 119.889 23.1024 116.982 22.2791C114.027 21.4557 110.879 22.3033 108.747 24.4585L94.5304 38.6494L86.6831 37.3417L85.3753 29.4956L99.5681 15.3048C101.724 13.1495 102.547 10.0014 101.724 7.07118C100.924 4.141 98.5751 1.86466 95.6203 1.13817C82.7353 -2.05839 69.487 1.6225 60.1139 10.97C57.6434 13.4401 55.6332 16.225 53.9862 19.1794L54.2526 19.3731V23.2719ZM25.6731 109.942C22.573 113.042 17.1235 113.042 14.0233 109.942C12.4733 108.393 11.6013 106.31 11.6013 104.13C11.6013 101.927 12.449 99.8684 14.0233 98.3185L46.5749 65.7717L38.3644 57.5623L5.81278 90.085C2.05869 93.8385 0 98.8271 0 104.13C0 109.434 2.05869 114.422 5.81278 118.176C9.56687 121.929 14.5562 123.988 19.8603 123.988C25.1645 123.988 30.1538 121.929 33.9079 118.176L58.3458 93.7416C55.9965 89.9154 54.6644 85.5565 54.5433 81.1249L25.6731 109.942ZM121.366 95.8242L93.0045 67.4669C87.4097 61.8729 79.0539 60.7831 72.3207 64.1008L46.5023 38.2861V23.2477L15.5008 0L0 15.4985L23.2511 46.4955H38.2917L64.1102 72.3101C60.8162 79.0423 61.8819 87.3969 67.4767 92.9909L95.8383 121.348C99.3744 124.884 105.09 124.884 108.602 121.348L121.366 108.586C124.878 105.051 124.878 99.3356 121.366 95.8242Z" fill="black" fill-opacity="0.1"/>
</svg>

<svg width="124" height="124" fill="none" xmlns="http://www.w3.org/2000/svg"><path d="M54.253 23.272V35.09l7.193 7.192c-1.647-8.427.848-17.024 6.903-23.078 4.916-4.916 11.431-7.556 18.165-7.556h.29L72.902 25.5l3.657 21.94 21.944 3.657L112.38 37.22c.073 6.853-2.567 13.44-7.556 18.428-2.253 2.252-4.893 3.972-7.702 5.231.436.387.945.702 1.356 1.114l7.436 7.434c2.543-1.525 4.965-3.366 7.12-5.545 9.228-9.227 13.007-22.836 9.858-35.501a8.463 8.463 0 00-5.91-6.103 8.407 8.407 0 00-8.235 2.18L94.53 38.648l-7.847-1.307-1.308-7.846 14.193-14.191c2.156-2.155 2.979-5.304 2.156-8.234a8.414 8.414 0 00-6.104-5.933c-12.885-3.196-26.133.485-35.506 9.832-2.47 2.47-4.48 5.255-6.128 8.21l.267.193v3.899zm-28.58 86.67c-3.1 3.1-8.55 3.1-11.65 0a8.21 8.21 0 01-2.422-5.812c0-2.203.848-4.262 2.422-5.811l32.552-32.547-8.21-8.21L5.812 90.085C2.059 93.839 0 98.827 0 104.13c0 5.304 2.059 10.292 5.813 14.046 3.754 3.753 8.743 5.812 14.047 5.812 5.305 0 10.294-2.059 14.048-5.812l24.438-24.434c-2.35-3.827-3.682-8.186-3.803-12.617l-28.87 28.817zm95.693-14.118L93.004 67.467c-5.594-5.594-13.95-6.684-20.683-3.366L46.502 38.286V23.248L15.501 0 0 15.498l23.251 30.998h15.04l25.82 25.814c-3.295 6.732-2.23 15.087 3.366 20.68l28.361 28.358c3.536 3.536 9.252 3.536 12.764 0l12.764-12.762c3.512-3.535 3.512-9.25 0-12.762z" fill="#000" fill-opacity=".1"/></svg>
